X: 4943
T: Breast Of St Marc, The
R: reel
M: 4/4
K: Bminor
B2 B/B/B fBBe|eBdB ABBd|B2 B/B/B fggf|eddB ABBd|
B2 B/B/B fBBe|eBdB ABBd|gffe fd d/d/d|1 eddB ABBd:|2 eddB ABBf||
|:affd eddB|ABBd c2 c/c/c|BccB ccBc|dccB c2 c/c/c|
affd eddB|ABBd c2 c/c/c|/B/c/ddB cAAa|1 gece d2 fg:|2 egce d2 cd||

